X:498
T:Silverton Polka 
C:Joe Buchanan's Scottish Tome - Page 473.0
I:473 0
R:Polka
Z:Carl Allison
L:1/8
M:C
K:G
((3def) | g2 g2 g2 (B>c)  | d>ed>c   B2 (A>B) | c2 E2 E2 (A>G)  | F>AE>F D2 ((3def) |  
g2 g2 g2 (B>c)  | d>ed>c   B2 (A>B)  | c2 E2 A>GF>E   | D2 G2 G2 :|
D2 B2 B>AG>F   | E2 c2 c4 | D2 c2 c>BA>G   | e2 d2 B4 | 
D2 B2 B>AG>F | E2 c2 c2> c2 | d2 (f>e)  d>cB>A   | A4 G4 :| 
A2 A2 A>dc>d   | B2 B2 B2 (g>e)  | c2 c2 c>AB>c   | d>cd>e f>dA>F |   
A2 A2 A>dc>d   | B2 B2 B2 (g>e)  | c2 c2 c>AB>c   | d2 d2 d4 :|
B4- > B2 D/ (G>A)  | B4- > B2 D/ (G>A) | B>gf>e   d>cB>c   | A>GA>B A>DG>A |  
B4- > B2 G/ A>B  | c4- > c2 B/ (A>G)  | F>gf>e   d>cB>A   | G2 G2 G2 :|
((3def) | g2 g2 g2 B>c  | d>ed>c   B2 (A>B)  | c2 E2 E2 (A>G)  | F>GE>F D2 ((3def) |  
g2 g2 g2 (B>c)  | d>ed>c   B2 A>B | c2 E2 A>GF>E   | D2 G2 G4 |]

